static/img/kroki/0a22e82e713ffdc192faa499cef4b28c.svg

<?xml version="1.0" encoding="us-ascii" standalone="no"?><svg xmlns="http://www.w3.org/2000/svg" xmlns:xlink="http://www.w3.org/1999/xlink" contentStyleType="text/css" height="252px" preserveAspectRatio="none" style="width:364px;height:252px;" version="1.1" viewBox="0 0 364 252" width="364px" zoomAndPan="magnify"><defs/><g><!--class azure_sql_server--><g id="elem_azure_sql_server"><rect codeLine="23" fill="#3D176E" height="39.7891" id="azure_sql_server" rx="2.5" ry="2.5" style="stroke:#000D19;stroke-width:0.5;" width="181" x="41.5" y="7"/><ellipse cx="56.5" cy="26.8945" fill="#ADD1B2" rx="11" ry="11" style="stroke:#181818;stroke-width:1.0;"/><path d="M59.4688,32.5352 Q58.8906,32.832 58.25,32.9727 Q57.6094,33.1289 56.9063,33.1289 Q54.4063,33.1289 53.0781,31.4883 Q51.7656,29.832 51.7656,26.707 Q51.7656,23.582 53.0781,21.9258 Q54.4063,20.2695 56.9063,20.2695 Q57.6094,20.2695 58.25,20.4258 Q58.9063,20.582 59.4688,20.8789 L59.4688,23.5977 Q58.8438,23.0195 58.25,22.7539 Q57.6563,22.4727 57.0313,22.4727 Q55.6875,22.4727 55,23.5508 Q54.3125,24.6133 54.3125,26.707 Q54.3125,28.8008 55,29.8789 Q55.6875,30.9414 57.0313,30.9414 Q57.6563,30.9414 58.25,30.6758 Q58.8438,30.3945 59.4688,29.8164 L59.4688,32.5352 Z " fill="#000000"/><text fill="#D9B8FF" font-family="Helvetica" font-size="17" lengthAdjust="spacing" textLength="139" x="75.5" y="32.7798">azure_sql_server</text></g><!--class azure_sql_server_advisor--><g id="elem_azure_sql_server_advisor"><rect codeLine="26" fill="#3D176E" height="39.7891" id="azure_sql_server_advisor" rx="2.5" ry="2.5" style="stroke:#000D19;stroke-width:0.5;" width="250" x="7" y="206.58"/><ellipse cx="22" cy="226.4745" fill="#ADD1B2" rx="11" ry="11" style="stroke:#181818;stroke-width:1.0;"/><path d="M24.9688,232.1152 Q24.3906,232.412 23.75,232.5527 Q23.1094,232.7089 22.4063,232.7089 Q19.9063,232.7089 18.5781,231.0683 Q17.2656,229.412 17.2656,226.287 Q17.2656,223.162 18.5781,221.5058 Q19.9063,219.8495 22.4063,219.8495 Q23.1094,219.8495 23.75,220.0058 Q24.4063,220.162 24.9688,220.4589 L24.9688,223.1777 Q24.3438,222.5995 23.75,222.3339 Q23.1563,222.0527 22.5313,222.0527 Q21.1875,222.0527 20.5,223.1308 Q19.8125,224.1933 19.8125,226.287 Q19.8125,228.3808 20.5,229.4589 Q21.1875,230.5214 22.5313,230.5214 Q23.1563,230.5214 23.75,230.2558 Q24.3438,229.9745 24.9688,229.3964 L24.9688,232.1152 Z " fill="#000000"/><text fill="#D9B8FF" font-family="Helvetica" font-size="17" lengthAdjust="spacing" textLength="208" x="41" y="232.3598">azure_sql_server_advisor</text></g><!--class azure_sql_server_database--><g id="elem_azure_sql_server_database"><rect codeLine="29" fill="#3D176E" height="39.7891" id="azure_sql_server_database" rx="2.5" ry="2.5" style="stroke:#000D19;stroke-width:0.5;" width="265" x="92.5" y="106.79"/><ellipse cx="107.5" cy="126.6845" fill="#ADD1B2" rx="11" ry="11" style="stroke:#181818;stroke-width:1.0;"/><path d="M110.4688,132.3252 Q109.8906,132.622 109.25,132.7627 Q108.6094,132.9189 107.9063,132.9189 Q105.4063,132.9189 104.0781,131.2783 Q102.7656,129.622 102.7656,126.497 Q102.7656,123.372 104.0781,121.7158 Q105.4063,120.0595 107.9063,120.0595 Q108.6094,120.0595 109.25,120.2158 Q109.9063,120.372 110.4688,120.6689 L110.4688,123.3877 Q109.8438,122.8095 109.25,122.5439 Q108.6563,122.2627 108.0313,122.2627 Q106.6875,122.2627 106,123.3408 Q105.3125,124.4033 105.3125,126.497 Q105.3125,128.5908 106,129.6689 Q106.6875,130.7314 108.0313,130.7314 Q108.6563,130.7314 109.25,130.4658 Q109.8438,130.1845 110.4688,129.6064 L110.4688,132.3252 Z " fill="#000000"/><text fill="#D9B8FF" font-family="Helvetica" font-size="17" lengthAdjust="spacing" textLength="223" x="126.5" y="132.5698">azure_sql_server_database</text></g><!--link azure_sql_server to azure_sql_server_advisor--><g id="link_azure_sql_server_azure_sql_server_advisor"><path codeLine="32" d="M112.83,47 C99.35,61.88 82.44,83.8 75,106.79 C69.56,123.62 69.56,129.76 75,146.58 C82.44,169.57 95.3217,187.0433 108.8017,201.9233 " fill="none" id="azure_sql_server-to-azure_sql_server_advisor" style="stroke:#1A83AF;stroke-width:2.0;"/><polygon fill="#1A83AF" points="112.83,206.37,109.752,197.0145,109.4731,202.6644,103.8231,202.3855,112.83,206.37" style="stroke:#1A83AF;stroke-width:2.0;"/></g><!--link azure_sql_server to azure_sql_server_database--><g id="link_azure_sql_server_azure_sql_server_database"><path codeLine="33" d="M150.37,47.22 C166.68,64.36 186.2366,84.9209 202.5266,102.0609 " fill="none" id="azure_sql_server-to-azure_sql_server_database" style="stroke:#1A83AF;stroke-width:2.0;"/><polygon fill="#1A83AF" points="206.66,106.41,203.3593,97.1307,203.2155,102.7857,197.5604,102.642,206.66,106.41" style="stroke:#1A83AF;stroke-width:2.0;"/></g><!--link azure_sql_server_database to azure_sql_server_advisor--><g id="link_azure_sql_server_database_azure_sql_server_advisor"><path codeLine="34" d="M206.63,147.01 C190.32,164.15 170.7634,184.7109 154.4734,201.8509 " fill="none" id="azure_sql_server_database-to-azure_sql_server_advisor" style="stroke:#1A83AF;stroke-width:2.0;"/><polygon fill="#1A83AF" points="150.34,206.2,159.4396,202.432,153.7845,202.5757,153.6407,196.9207,150.34,206.2" style="stroke:#1A83AF;stroke-width:2.0;"/></g><!--SRC=[bP31Ji9048RlVOfDE9DGYK8l9fM4w8KOyMPCC-tEmgRjBiui432-ks35BAqjUjt_s_c_cQMMAB1SkPqeiKoHEE1ScnKGb28cijk9BIo9dbAWXgDwEBN6NGHcKAAunsA3JcTG9vwNEiiDCeihBxg3B5-GNHjPZNS4XWyH6kTHamAOO-T8fsk7deoCqh5ITR8-j3UKuUW66vWbYVID30O36KPrv69Lvzu_n5plKOJ-qMRMOKEpKV55TLeU2K-oiUWfRtLy12crMOXhx-sfSYA3TFO-NuAqsoEje62_XXqIMhTRuQIn5KPZgKQ_mWzjS90TJoTWloPC-Ar866bpi7aFWe-MB06vqMox6GaEKc2ieCRu_ailZCV3UFhQlsqj-E-tKsVGRlEttay0]--></g></svg>

<svg xmlns="http://www.w3.org/2000/svg" width="364" height="252" viewBox="0 0 364 252"><rect width="181" height="39.789" x="41.5" y="7" fill="#3D176E" rx="2.5" ry="2.5" style="stroke:#000d19;stroke-width:.5"/><circle cx="56.5" cy="26.895" r="11" fill="#ADD1B2" style="stroke:#181818;stroke-width:1"/><path d="M59.469 32.535q-.578.297-1.219.438-.64.156-1.344.156-2.5 0-3.828-1.64-1.312-1.657-1.312-4.782t1.312-4.781q1.328-1.656 3.828-1.656.703 0 1.344.156.656.156 1.219.453v2.719q-.625-.578-1.219-.844-.594-.281-1.219-.281-1.343 0-2.031 1.078-.687 1.062-.687 3.156T55 29.879q.688 1.062 2.031 1.062.625 0 1.219-.265.594-.281 1.219-.86z"/><text x="75.5" y="32.78" fill="#D9B8FF" font-family="Helvetica" font-size="17" textLength="139">azure_sql_server</text><rect width="250" height="39.789" x="7" y="206.58" fill="#3D176E" rx="2.5" ry="2.5" style="stroke:#000d19;stroke-width:.5"/><circle cx="22" cy="226.475" r="11" fill="#ADD1B2" style="stroke:#181818;stroke-width:1"/><path d="M24.969 232.115q-.578.297-1.219.438-.64.156-1.344.156-2.5 0-3.828-1.64-1.312-1.657-1.312-4.782t1.312-4.781q1.328-1.656 3.828-1.656.703 0 1.344.156.656.156 1.219.453v2.719q-.625-.578-1.219-.844-.594-.281-1.219-.281-1.343 0-2.031 1.078-.687 1.062-.687 3.156t.687 3.172q.688 1.062 2.031 1.062.625 0 1.219-.265.594-.281 1.219-.86z"/><text x="41" y="232.36" fill="#D9B8FF" font-family="Helvetica" font-size="17" textLength="208">azure_sql_server_advisor</text><rect width="265" height="39.789" x="92.5" y="106.79" fill="#3D176E" rx="2.5" ry="2.5" style="stroke:#000d19;stroke-width:.5"/><circle cx="107.5" cy="126.684" r="11" fill="#ADD1B2" style="stroke:#181818;stroke-width:1"/><path d="M110.469 132.325q-.578.297-1.219.438-.64.156-1.344.156-2.5 0-3.828-1.64-1.312-1.657-1.312-4.782t1.312-4.781q1.328-1.656 3.828-1.656.703 0 1.344.156.656.156 1.219.453v2.719q-.625-.579-1.219-.844-.594-.281-1.219-.281-1.344 0-2.031 1.078-.687 1.062-.687 3.156t.687 3.172q.688 1.062 2.031 1.062.625 0 1.219-.265.594-.281 1.219-.86z"/><text x="126.5" y="132.57" fill="#D9B8FF" font-family="Helvetica" font-size="17" textLength="223">azure_sql_server_database</text><path fill="none" d="M112.83 47C99.35 61.88 82.44 83.8 75 106.79c-5.44 16.83-5.44 22.97 0 39.79 7.44 22.99 20.322 40.463 33.802 55.343" style="stroke:#1a83af;stroke-width:2"/><path fill="#1A83AF" d="m112.83 206.37-3.078-9.356-.279 5.65-5.65-.278z" style="stroke:#1a83af;stroke-width:2"/><path fill="none" d="M150.37 47.22c16.31 17.14 35.867 37.7 52.157 54.84" style="stroke:#1a83af;stroke-width:2"/><path fill="#1A83AF" d="m206.66 106.41-3.3-9.28-.145 5.656-5.655-.144z" style="stroke:#1a83af;stroke-width:2"/><path fill="none" d="M206.63 147.01c-16.31 17.14-35.867 37.7-52.157 54.84" style="stroke:#1a83af;stroke-width:2"/><path fill="#1A83AF" d="m150.34 206.2 9.1-3.768-5.655.144-.144-5.655z" style="stroke:#1a83af;stroke-width:2"/></svg>
